Papirus/32x32/mimetypes/text-x-haskell.svg

<svg xmlns="http://www.w3.org/2000/svg" width="32" height="32" version="1.1">
 <path style="opacity:0.2" d="M 7.25,5 C 6.5575,5 6,5.5575 6,6.25 v 22.5 C 6,29.442 6.5575,30 7.25,30 h 17.5 C 25.442,30 26,29.442 26,28.75 V 13 L 19.125,11.875 18,5 Z"/>
 <path fill="#e4e4e4" d="m7.25 4c-0.6925 0-1.25 0.5575-1.25 1.25v22.5c0 0.692 0.5575 1.25 1.25 1.25h17.5c0.692 0 1.25-0.558 1.25-1.25v-15.75l-6.875-1.125-1.125-6.875z"/>
 <path style="opacity:0.2" d="m 18,5 v 6.6667 c 0,0.736 0.597,1.333 1.333,1.333 H 26 l -8,-8 z"/>
 <path fill="#fafafa" d="m18 4v6.6667c0 0.736 0.597 1.333 1.333 1.333h6.667l-8-8z"/>
 <path fill="#ffffff" opacity=".2" d="m7.25 4c-0.6925 0-1.25 0.5575-1.25 1.25v1c0-0.6925 0.5575-1.25 1.25-1.25h10.75v-1z"/>
 <path style="fill:#8b82a4" d="m 10,14 3.25,6 -3.25,6 h 2 L 15.25,20 12,14 Z"/>
 <path style="fill:#5f5088" d="m 13,14 3.25,6 -3.25,6 h 2 L 17.25,21.85 19.5,26 h 2 L 15,14 Z"/>
 <path style="fill:#8b82a4" d="m 18.166,18 0.813,1.5 H 22 V 18 Z"/>
 <path style="fill:#8b82a4" d="M 19.521,20.5 20.334,22 H 22 v -1.5 z"/>
</svg>

<svg xmlns="http://www.w3.org/2000/svg" width="32" height="32" version="1.1">
 <path style="opacity:0.2" d="M 7.25,5 C 6.5575,5 6,5.5575 6,6.25 v 22.5 C 6,29.442 6.5575,30 7.25,30 h 17.5 C 25.442,30 26,29.442 26,28.75 V 13 L 19.125,11.875 18,5 Z"/>
 <path fill="#e4e4e4" d="m7.25 4c-0.6925 0-1.25 0.5575-1.25 1.25v22.5c0 0.692 0.5575 1.25 1.25 1.25h17.5c0.692 0 1.25-0.558 1.25-1.25v-15.75l-6.875-1.125-1.125-6.875z"/>
 <path style="opacity:0.2" d="m 18,5 v 6.6667 c 0,0.736 0.597,1.333 1.333,1.333 H 26 l -8,-8 z"/>
 <path fill="#fafafa" d="m18 4v6.6667c0 0.736 0.597 1.333 1.333 1.333h6.667l-8-8z"/>
 <path fill="#ffffff" opacity=".2" d="m7.25 4c-0.6925 0-1.25 0.5575-1.25 1.25v1c0-0.6925 0.5575-1.25 1.25-1.25h10.75v-1z"/>
 <path style="opacity:0.5" d="M 10 14 L 13.25 20 L 10 26 L 12 26 L 15.25 20 L 12 14 L 10 14 z M 13 14 L 16.25 20 L 13 26 L 15 26 L 17.25 21.85 L 19.5 26 L 21.5 26 L 15 14 L 13 14 z M 18.166 18 L 18.979 19.5 L 22 19.5 L 22 18 L 18.166 18 z M 19.521 20.5 L 20.334 22 L 22 22 L 22 20.5 L 19.521 20.5 z"/>
</svg>
